icons/pandas-light.svg

<svg width="256" height="256" viewBox="0 0 256 256" fill="none" xmlns="http://www.w3.org/2000/svg">
<g clip-path="url(#clip0_85_158)">
<path d="M196 0H60C26.8629 0 0 26.8629 0 60V196C0 229.137 26.8629 256 60 256H196C229.137 256 256 229.137 256 196V60C256 26.8629 229.137 0 196 0Z" fill="#F4F2ED"/>
<path d="M103.713 51.3447H122.836V91.0557H103.713V51.3447Z" fill="#130754"/>
<path d="M103.713 132.918H122.836V172.629H103.713V132.918Z" fill="#130754"/>
<path d="M103.713 102.646H122.836V121.383H103.713V102.646Z" fill="#FFCA00"/>
<path d="M73 83.998H92.1232V216H73V83.998Z" fill="#130754"/>
<path d="M133.799 165.683H152.922V205.394H133.799V165.683Z" fill="#130754"/>
<path d="M133.799 84.0454H152.922V123.756H133.799V84.0454Z" fill="#130754"/>
<path d="M133.799 135.348H152.922V154.084H133.799V135.348Z" fill="#E70488"/>
<path d="M163.877 41H183V173.002H163.877V41Z" fill="#130754"/>
</g>
<defs>
<clipPath id="clip0_85_158">
<rect width="256" height="256" fill="white"/>
</clipPath>
</defs>
</svg>

<svg xmlns="http://www.w3.org/2000/svg" width="256" height="256" fill="none"><g clip-path="url(#clip0_85_158)"><path fill="#F4F2ED" d="M196 0H60C26.863 0 0 26.863 0 60v136c0 33.137 26.863 60 60 60h136c33.137 0 60-26.863 60-60V60c0-33.137-26.863-60-60-60"/><path fill="#130754" d="M103.713 51.345h19.123v39.71h-19.123zm0 81.573h19.123v39.711h-19.123z"/><path fill="#FFCA00" d="M103.713 102.646h19.123v18.737h-19.123z"/><path fill="#130754" d="M73 83.998h19.123V216H73zm60.799 81.685h19.123v39.711h-19.123zm0-81.638h19.123v39.711h-19.123z"/><path fill="#E70488" d="M133.799 135.348h19.123v18.736h-19.123z"/><path fill="#130754" d="M163.877 41H183v132.002h-19.123z"/></g><defs><clipPath id="clip0_85_158"><path fill="#fff" d="M0 0h256v256H0z"/></clipPath></defs></svg>
